communes/683.svg

<?xml version="1.0" encoding="UTF-8" standalone="no"?>
<!-- Created with Inkscape (http://www.inkscape.org/) -->
<svg
   xmlns:svg="http://www.w3.org/2000/svg"
   xmlns="http://www.w3.org/2000/svg"
   xmlns:xlink="http://www.w3.org/1999/xlink"
   version="1.0"
   width="603"
   height="763"
   id="svg20">
  <defs
     id="defs29">
    <linearGradient
       id="linearGradient2893">
      <stop
         style="stop-color:white;stop-opacity:0.3137255"
         offset="0"
         id="stop2895" />
      <stop
         style="stop-color:white;stop-opacity:0.25098041"
         offset="0.19"
         id="stop2897" />
      <stop
         style="stop-color:#6b6b6b;stop-opacity:0.1254902"
         offset="0.60000002"
         id="stop2901" />
      <stop
         style="stop-color:black;stop-opacity:0.1254902"
         offset="1"
         id="stop2899" />
    </linearGradient>
    <radialGradient
       cx="858.04236"
       cy="579.93323"
       r="300"
       fx="858.04236"
       fy="579.93323"
       id="radialGradient3236"
       xlink:href="#linearGradient2893"
       gradientUnits="userSpaceOnUse"
       gradientTransform="matrix(1.215027,0,0,1.266667,-839.1924,-490.4894)" />
  </defs>
  <desc
     id="desc22">Coat of Arms of Canton of Freiburg (Fribourg)</desc>
  <g
     style="display:inline"
     id="layer1">
    <path
       d="M 1.5,1.49998 L 1.5,460.3679 C 1.5,626.6785 135.81456,761.5 301.49999,761.5 C 467.18543,761.5 601.5,626.6785 601.5,460.3679 L 601.5,1.49998 L 1.5,1.49998 z "
       style="fill:#fcef3c;fill-opacity:1"
       id="path1899" />
  </g>
  <g
     style="opacity:1;display:inline"
     id="layer2">
    <path
       d="M 482.61971,699.24783 C 375.54101,784.65115 211.4007,777.68379 119.60117,699.24783 C 240.60735,615.01539 361.61353,610.68679 482.61971,699.24783 z "
       style="fill:#5ab532;fill-rule:evenodd;stroke:none;stroke-width:1px;stroke-linecap:butt;stroke-linejoin:miter;stroke-opacity:1"
       id="path1930" />
    <path
       d="M 119.33773,699.33732 C 177.18947,659.06671 235.0412,637.05965 292.89293,634.7352 C 356.04738,632.19768 419.20182,653.11635 482.35627,699.33732"
       style="opacity:1;fill:none;fill-rule:evenodd;stroke:black;stroke-width:5;stroke-linecap:butt;stroke-linejoin:miter;stroke-miterlimit:4;stroke-dasharray:none;stroke-opacity:1;display:inline"
       id="path1938" />
    <path
       d="M 302.05799,598.35611 C 325.19687,586.36966 338.68938,569.26359 353.01148,547.71515 C 364.71537,526.53207 369.71095,503.81904 373.5022,478.41925 C 377.27028,457.28926 383.70833,435.60242 418.20923,426.26105 C 435.71948,420.85008 458.073,419.37562 470.73999,408.00568 C 448.43629,385.32805 422.00813,372.94625 397.71851,368.14191 C 406.26072,359.24166 416.61494,348.60204 415.60132,335.35675 C 359.70925,317.16379 334.37825,335.09291 302.05799,343.89859 C 269.73772,335.03889 244.40672,317.10977 188.51465,335.30273 C 187.50103,348.54802 197.85525,359.18764 206.39746,368.08789 C 182.10784,372.89223 155.67968,385.27403 133.37598,407.95166 C 146.04297,419.3216 168.39649,420.79606 185.90674,426.20703 C 220.40764,435.5484 226.84569,457.23524 230.61377,478.36523 C 234.40502,503.76502 239.4006,526.47805 251.10449,547.66113 C 265.42659,569.20957 278.91911,586.36966 302.05799,598.35611 z "
       style="fill:#2b5df2;fill-rule:evenodd;stroke:black;stroke-width:5;stroke-linecap:butt;stroke-linejoin:miter;stroke-miterlimit:4;stroke-dasharray:none;stroke-opacity:1"
       id="path1936" />
    <path
       d="M 470.76577,408.36786 C 421.22954,419.42928 372.4263,428.56651 349.05709,412.58288 C 329.83151,437.43115 320.10132,440.88658 302.03288,447.90548 C 283.96444,440.93022 274.23425,437.47479 255.00867,412.62652 C 231.63946,428.61015 182.83622,419.47292 133.29999,408.4115"
       style="fill:none;fill-rule:evenodd;stroke:black;stroke-width:5;stroke-linecap:butt;stroke-linejoin:miter;stroke-miterlimit:4;stroke-dasharray:none;stroke-opacity:1"
       id="path3713" />
    <path
       d="M 348.86312,412.75128 C 353.34241,422.69796 354.33278,439.98699 347.00033,447.77179 C 328.31757,470.12531 334.94674,492.47882 332.47054,514.83234 C 330.88305,537.25973 332.38686,557.66325 302.03288,587.87564 C 271.6789,557.70689 273.18271,537.30337 271.59522,514.87598 C 269.11902,492.52246 275.74819,470.16895 257.06543,447.81543 C 249.73298,440.03063 250.72335,422.7416 255.20264,412.79492"
       style="fill:none;fill-rule:evenodd;stroke:black;stroke-width:3;stroke-linecap:butt;stroke-linejoin:miter;stroke-miterlimit:4;stroke-dasharray:none;stroke-opacity:1"
       id="path3717" />
    <path
       d="M 302.13885,634.5925 C 348.78069,636.25342 398.5775,633.70694 438.31132,604.92931 C 476.59233,574.52375 504.10058,530.04224 577.93383,546.9728 C 550.26606,482.16113 508.81865,469.22575 457.2789,494.28506 C 430.01385,509.16459 415.84775,529.70779 400.37614,548.55343 C 364.68114,595.46284 354.98485,610.52781 302.13885,610.53693 C 249.29285,610.53527 239.59656,595.4703 203.90156,548.56089 C 188.42995,529.71525 174.26385,509.17205 146.9988,494.29252 C 95.459051,469.23321 54.01164,482.16859 26.343871,546.98026 C 100.17712,530.0497 127.68537,574.53121 165.96638,604.93677 C 205.7002,633.7144 255.49701,636.25342 302.13885,634.5925 z "
       style="fill:#5ab532;fill-rule:evenodd;stroke:black;stroke-width:5;stroke-linecap:butt;stroke-linejoin:miter;stroke-miterlimit:4;stroke-opacity:1"
       id="path1932" />
    <path
       d="M 299.53711,635.2124 C 258.92632,630.67823 218.81798,610.06597 179.20068,573.74023 C 149.65228,547.98576 125.28649,514.08721 76.001953,519.34668"
       style="fill:none;fill-rule:evenodd;stroke:black;stroke-width:3;stroke-linecap:round;stroke-linejoin:miter;stroke-miterlimit:4;stroke-dasharray:none;stroke-opacity:1"
       id="path3732" />
    <path
       d="M 304.74059,635.20494 C 345.35138,630.67077 385.45972,610.05851 425.07702,573.73277 C 454.62542,547.9783 478.99121,514.07975 528.27575,519.33922"
       style="opacity:1;fill:none;fill-rule:evenodd;stroke:black;stroke-width:3;stroke-linecap:round;stroke-linejoin:miter;stroke-miterlimit:4;stroke-dasharray:none;stroke-opacity:1;display:inline"
       id="path6396" />
    <path
       d="M 314.0669,635.2124 L 314.0669,609.87842 C 364.21581,604.83692 371.50664,567.54012 375.91162,547.28857 C 350.38701,564.73287 327.39843,576.05671 315.18457,596.09375 C 323.0083,573.67479 319.43631,547.69346 302.14502,537.22949 C 284.85373,547.69346 281.28174,573.67479 289.10547,596.09375 C 277.97047,576.33807 255.24252,566.21331 228.37842,547.28857 C 232.7834,567.54012 240.07423,604.83692 290.22314,609.87842 L 290.22314,635.2124"
       style="fill:#5ab532;fill-rule:evenodd;stroke:black;stroke-width:5;stroke-linecap:butt;stroke-linejoin:miter;stroke-miterlimit:4;stroke-opacity:1"
       id="path1934" />
    <path
       d="M 303.11023,412.05245 C 304.82972,404.92502 305.61415,395.93789 308.93165,390.73383 C 323.2952,385.53472 322.4392,368.05869 303.11023,367.71788 C 282.93715,367.54586 282.92525,385.52954 297.2888,390.72866 C 300.6063,395.93271 301.39073,404.92502 303.11023,412.05245 z "
       style="fill:black;fill-opacity:1;fill-rule:evenodd;stroke:black;stroke-width:2.99999976;stroke-linecap:butt;stroke-linejoin:round;stroke-miterlimit:4;stroke-dasharray:none;stroke-opacity:1"
       id="path8171" />
    <path
       d="M 1.4902344,304.75293 L 600.56445,304.75293"
       style="fill:none;fill-rule:evenodd;stroke:black;stroke-width:1px;stroke-linecap:butt;stroke-linejoin:miter;stroke-opacity:1"
       id="path9948" />
    <rect
       width="599.07422"
       height="210.12305"
       x="2.2353516"
       y="1.490234"
       style="opacity:1;fill:#e20909;fill-opacity:1;fill-rule:evenodd;stroke:none;stroke-width:15;stroke-linecap:round;stroke-linejoin:round;stroke-miterlimit:4;stroke-dasharray:none;stroke-dashoffset:0;stroke-opacity:1"
       id="rect11777" />
    <path
       d="M 187.60489,26.588598 C 180.1218,46.038183 188.37011,62.049322 202.67221,77.135984 C 213.73163,88.802106 220.99813,101.23453 220.65241,114.59219 C 215.62164,116.47749 210.82438,118.50965 206.19364,120.69649 L 90.610665,69.67509 L 168.2072,145.64272 C 166.81306,146.922 165.45471,148.25165 164.14693,149.56728 C 142.13789,142.97813 121.47736,141.67158 101.7898,144.20257 C 73.958627,147.78049 50.330173,143.90674 25.656906,134.13378 C 41.059495,151.40328 64.039069,158.84469 90.203996,162.79155 C 110.47715,165.84966 128.80209,171.21594 142.78659,180.86053 C 141.26494,184.49472 140.00826,188.1705 139.0527,191.90192 L 3.0035906,210.23695 L 138.74598,227.48886 L 464.92256,228.50306 L 601.01207,210.23278 L 465.22928,192.91613 C 464.85622,191.36406 464.40664,189.81655 463.92976,188.26706 C 486.53025,182.59467 502.5616,173.82763 513.79401,162.78205 C 529.66677,147.17326 550.42505,138.86935 578.26978,134.18509 C 549.00418,129.21188 524.91236,134.69361 502.21165,144.19859 C 484.62361,151.56285 465.97335,156.33815 445.81131,156.0833 C 442.98881,152.76179 439.93704,149.59777 436.66654,146.53895 L 513.438,69.723846 L 398.99238,121.25567 C 397.10546,120.34909 395.16422,119.44665 393.22495,118.59518 C 403.15485,103.97245 405.10552,90.23747 401.29712,77.153365 C 395.91339,58.657071 401.74234,42.953862 416.4476,26.556335 C 390.46232,36.792698 379.36267,52.037824 373.42392,69.426743 C 368.81726,82.915161 360.6018,95.133279 346.04085,104.42616 C 340.59857,103.42168 335.11131,102.54979 329.52439,101.91785 L 302.03318,11.474389 L 275.97696,101.71401 C 273.64161,101.96195 271.31308,102.26072 268.98161,102.57767 C 260.44005,87.567438 247.25499,76.903522 230.63449,69.438473 C 207.14809,58.889588 194.65329,45.093955 187.60489,26.588598 z "
       style="color:black;fill:white;fill-opacity:1;fill-rule:nonzero;stroke:black;stroke-width:4.99999952;stroke-linecap:butt;stroke-linejoin:miter;marker:none;marker-start:none;marker-mid:none;marker-end:none;stroke-miterlimit:4;stroke-dasharray:none;stroke-dashoffset:0;stroke-opacity:1;visibility:visible;display:inline;overflow:visible"
       id="path2140" />
    <rect
       width="598.3291"
       height="92.394531"
       x="1.4902344"
       y="213.84863"
       style="opacity:1;fill:#5ab532;fill-opacity:1;fill-rule:evenodd;stroke:none;stroke-width:15;stroke-linecap:round;stroke-linejoin:round;stroke-miterlimit:4;stroke-dasharray:none;stroke-dashoffset:0;stroke-opacity:1"
       id="rect10840" />
    <path
       d="M 2.0171118,304.49856 L 601.09133,305.00756"
       style="fill:none;fill-rule:evenodd;stroke:black;stroke-width:15.00000381;stroke-linecap:butt;stroke-linejoin:miter;stroke-miterlimit:4;stroke-dasharray:none;stroke-opacity:1"
       id="path9951" />
    <path
       d="M 2.2353554,216.5746 L 601.30956,217.0836"
       style="opacity:1;fill:none;fill-rule:evenodd;stroke:black;stroke-width:15.00000381;stroke-linecap:butt;stroke-linejoin:miter;stroke-miterlimit:4;stroke-dasharray:none;stroke-opacity:1;display:inline"
       id="path10838" />
  </g>
  <g
     style="display:inline"
     id="layer3">
    <path
       d="M 1.5,1.5 L 1.5,460.3679 C 1.5,626.67854 135.81454,761.5 301.49993,761.5 C 467.1854,761.5 601.5,626.67854 601.5,460.3679 L 601.5,1.5 L 1.5,1.5 z "
       style="fill:url(#radialGradient3236);fill-opacity:1"
       id="path2346" />
  </g>
  <g
     style="display:inline"
     id="layer4">
    <path
       d="M 1.5,1.5 L 1.5,460.36794 C 1.5,626.67854 135.81454,761.5 301.49993,761.5 C 467.1854,761.5 601.5,626.67854 601.5,460.36794 L 601.5,1.5 L 1.5,1.5 z "
       style="fill:none;fill-opacity:1;stroke:black;stroke-width:3;stroke-miterlimit:4;stroke-dasharray:none;stroke-opacity:1"
       id="path3239" />
  </g>
</svg>

<?xml version="1.0" encoding="UTF-8"?>
<svg version="1.0" viewBox="0 0 603 763" xmlns="http://www.w3.org/2000/svg" xmlns:xlink="http://www.w3.org/1999/xlink">
<defs>
<radialGradient id="a" cx="858.04" cy="579.93" r="300" gradientTransform="matrix(1.215 0 0 1.2667 -839.19 -490.49)" gradientUnits="userSpaceOnUse">
<stop stop-color="#fff" stop-opacity=".31373" offset="0"/>
<stop stop-color="#fff" stop-opacity=".25098" offset=".19"/>
<stop stop-color="#6b6b6b" stop-opacity=".12549" offset=".6"/>
<stop stop-opacity=".12549" offset="1"/>
</radialGradient>
</defs>
<desc>Coat of Arms of Canton of Freiburg (Fribourg)</desc>
<g>
<path d="m1.5 1.5v458.87c0 166.31 134.31 301.13 300 301.13 165.69 0 300-134.82 300-301.13v-458.87h-600z" fill="#fcef3c"/>
</g>
<g>
<path d="m482.62 699.25c-107.08 85.403-271.22 78.436-363.02 0 121.01-84.232 242.01-88.561 363.02 0z" fill="#5ab532" fill-rule="evenodd"/>
<path d="m119.34 699.34c57.852-40.271 115.7-62.278 173.56-64.602 63.154-2.5375 126.31 18.381 189.46 64.602" fill="none" stroke="#000" stroke-width="5"/>
<path d="m302.06 598.36c23.139-11.986 36.631-29.093 50.953-50.641 11.704-21.183 16.699-43.896 20.491-69.296 3.7681-21.13 10.206-42.817 44.707-52.158 17.51-5.411 39.864-6.8854 52.531-18.255-22.304-22.678-48.732-35.059-73.021-39.864 8.5422-8.9002 18.896-19.54 17.883-32.785-55.892-18.193-81.223-0.26384-113.54 8.5418-32.32-8.8597-57.651-26.789-113.54-8.5959-1.0136 13.245 9.3406 23.885 17.883 32.785-24.29 4.8043-50.718 17.186-73.021 39.864 12.667 11.37 35.021 12.844 52.531 18.255 34.501 9.3414 40.939 31.028 44.707 52.158 3.7912 25.4 8.7868 48.113 20.491 69.296 14.322 21.548 27.815 38.709 50.954 50.695z" fill="#2b5df2" fill-rule="evenodd" stroke="#000" stroke-width="5"/>
<path d="m470.77 408.37c-49.536 11.061-98.339 20.199-121.71 4.215-19.226 24.848-28.956 28.304-47.024 35.323-18.068-6.9753-27.799-10.431-47.024-35.279-23.369 15.984-72.172 6.8464-121.71-4.215" fill="none" stroke="#000" stroke-width="5"/>
<path d="m348.86 412.75c4.4793 9.9467 5.4697 27.236-1.8628 35.021-18.683 22.354-12.054 44.707-14.53 67.061-1.5875 22.427-0.08368 42.831-30.438 73.043-30.354-30.169-28.85-50.572-30.438-73-2.4762-22.354 4.153-44.707-14.53-67.061-7.3324-7.7848-6.3421-25.074-1.8628-35.021" fill="none" stroke="#000" stroke-width="3"/>
<path d="m302.14 634.59c46.642 1.6609 96.439-0.88556 136.17-29.663 38.281-30.406 65.789-74.887 139.62-57.957-27.668-64.812-69.115-77.747-120.65-52.688-27.265 14.88-41.431 35.423-56.903 54.268-35.695 46.909-45.391 61.974-98.237 61.984-52.846-0.00166-62.542-15.067-98.237-61.976-15.472-18.846-29.638-39.389-56.903-54.268-51.54-25.059-92.987-12.124-120.65 52.688 73.833-16.931 101.34 27.551 139.62 57.957 39.734 28.778 89.531 31.317 136.17 29.656z" fill="#5ab532" fill-rule="evenodd" stroke="#000" stroke-width="5"/>
<path d="m299.54 635.21c-40.611-4.5342-80.719-25.146-120.34-61.472-29.548-25.754-53.914-59.653-103.2-54.394" fill="none" stroke="#000" stroke-linecap="round" stroke-width="3"/>
<path d="m304.74 635.2c40.611-4.5342 80.719-25.146 120.34-61.472 29.548-25.754 53.914-59.653 103.2-54.394" fill="none" stroke="#000" stroke-linecap="round" stroke-width="3"/>
<path d="m314.07 635.21v-25.334c50.149-5.0415 57.44-42.338 61.845-62.59-25.525 17.444-48.513 28.768-60.727 48.805 7.8237-22.419 4.2517-48.4-13.04-58.864-17.291 10.464-20.863 36.445-13.04 58.864-11.135-19.756-33.863-29.88-60.727-48.805 4.405 20.252 11.696 57.548 61.845 62.59v25.334" fill="#5ab532" fill-rule="evenodd" stroke="#000" stroke-width="5"/>
<path d="m303.11 412.05c1.7195-7.1274 2.5039-16.115 5.8214-21.319 14.364-5.1991 13.508-22.675-5.8214-23.016-20.173-0.17202-20.185 17.812-5.8214 23.011 3.3175 5.204 4.1019 14.196 5.8214 21.324z" fill-rule="evenodd" stroke="#000" stroke-linejoin="round" stroke-width="3"/>
<path d="m1.4902 304.75h599.07" fill="none" stroke="#000" stroke-width="1px"/>
<rect x="2.2354" y="1.4902" width="599.07" height="210.12" fill="#e20909" fill-rule="evenodd"/>
<path d="m187.6 26.589c-7.4831 19.45 0.76522 35.461 15.067 50.547 11.059 11.666 18.326 24.099 17.98 37.456-5.0308 1.8853-9.828 3.9175-14.459 6.1043l-115.58-51.021 77.597 75.968c-1.3941 1.2793-2.7525 2.6089-4.0603 3.9246-22.009-6.5892-42.67-7.8957-62.357-5.3647-27.831 3.5779-51.46-0.29583-76.133-10.069 15.403 17.27 38.382 24.711 64.547 28.658 20.273 3.0581 38.598 8.4244 52.583 18.069-1.5216 3.6342-2.7783 7.31-3.7339 11.041l-136.05 18.335 135.74 17.252 326.18 1.0142 136.09-18.27-135.78-17.317c-0.37306-1.5521-0.82264-3.0996-1.2995-4.6491 22.6-5.6724 38.632-14.439 49.864-25.485 15.873-15.609 36.631-23.913 64.476-28.597-29.266-4.9732-53.357 0.50852-76.058 10.014-17.588 7.3643-36.238 12.14-56.4 11.885-2.8225-3.3215-5.8743-6.4855-9.1448-9.5444l76.771-76.815-114.45 51.532c-1.8869-0.90658-3.8282-1.809-5.7674-2.6605 9.9299-14.623 11.881-28.358 8.0722-41.442-5.3837-18.496 0.44522-34.2 15.15-50.597-25.985 10.236-37.085 25.481-43.024 42.87-4.6067 13.488-12.822 25.707-27.383 34.999-5.4423-1.0045-10.93-1.8764-16.516-2.5083l-27.491-90.443-26.056 90.24c-2.3354 0.24794-4.6639 0.54671-6.9954 0.86366-8.5416-15.01-21.727-25.674-38.347-33.139-23.486-10.549-35.981-24.345-43.03-42.85z" color="black" fill="#fff" stroke="#000" stroke-width="5"/>
<rect x="1.4902" y="213.85" width="598.33" height="92.395" fill="#5ab532" fill-rule="evenodd"/>
<path d="m2.0171 304.5 599.07 0.509" fill="none" stroke="#000" stroke-width="15"/>
<path d="m2.2354 216.57 599.07 0.509" fill="none" stroke="#000" stroke-width="15"/>
</g>
<g>
<path d="m1.5 1.5v458.87c0 166.31 134.31 301.13 300 301.13 165.69 0 300-134.82 300-301.13v-458.87h-600z" fill="url(#a)"/>
<path d="m1.5 1.5v458.87c0 166.31 134.31 301.13 300 301.13 165.69 0 300-134.82 300-301.13v-458.87h-600z" fill="none" stroke="#000" stroke-width="3"/>
</g>
</svg>
